X:1
T:O Precious Word
T:O Precious Word
T:Ira David Sankey 
T:Frances J. (Fanny) Crosby, 1886
T:Public Domain Courtesy of the Cyber Hymnal™
T:Public Domain Courtesy of the Cyber Hymnal™
C:Ira David Sankey
Z:Public Domain
Z:Courtesy of the Cyber Hymnal™
%%score ( 1 2 ) ( 3 4 )
L:1/8
Q:1/4=115
M:4/4
K:Ab
V:1 treble 
V:2 treble 
V:3 bass 
V:4 bass 
V:1
 ([A,C]>[B,D]) | [CE]2 [CA]2 [CA]3 [CB] | [DA]2 [DG]2 [DG]2 [CA]2 | [DB]3 [D=A] [DB]2 [DE]2 | %4
w: 1.~O *|pre- cious word that|Je- sus said! The|soul that comes to|
w: 2.~O *|pre- cious word that|Je- sus said! Be-|hold, I am the|
w: 3.~O *|pre- cious word that|Je- sus said! Come,|wear- y souls op-|
w: 4.~O *|pre- cious word that|Je- sus said! The|world I o- ver-|
 [Cc]6 (A>B) | [Ec]2 [Ae]2 [Ae]3 [_Ge] | [Fe]2 [Fd]2 [FA]2 [_FB]2 | [Ec]2 [Ec]2 [Ec]3 [DB] | %8
w: Me, I *|will in no wise|cast him out, Who-|ev- er he may|
w: door; And *|all who en- ter|in by Me Have|life for- ev- er-|
w: pressed, Come *|take My yoke and|learn of Me, And|I will give you|
w: came; And *|they who fol- low|where I lead Shall|con- quer in My|
 [CA]6 ||"^Refrain" [CA]2 | [FA]2 [Fd]2 A3 (z B) | [Ec]6 [Ec]2 | [Ec]2 [Ec]2 [A=d]3 [Ad] | %13
w: be.|Who-|ev- er he *|* may|be, Who- ev- er|
w: more.|Have|life for- ev- *|* er-|more, Have life for-|
w: rest.|And|I will give *|* you|rest, And I will|
w: name.|Shall|con- quer in *|* My|name, Shall con- quer|
 [Ge]6 (c>d) | [Ae]2 [EA]2 [Ed]2 [Ec]2 | [FB]2 [Fc]2 !fermata![Fd]2 (c>B) | %16
w: he may *|be, I will in|no wise cast him *|
w: ev- er- *|more, And all who|en- ter in by *|
w: give you *|rest, Come take my|yoke and learn of *|
w: in My *|name, And they who|fol- low where I *|
 [EA]2 [EA]2 [DA]2 [DG]2 | [CA]6 |] %18
w: out, Who- ev- er|he|
w: Me Have life for-|ev-|
w: Me, And I will|give|
w: lead Shall con- quer|in|
V:2
 x2 | x8 | x8 | x8 | x6 E2 | x8 | x8 | x8 | x6 || x2 | x4 F2 _F2 x | x8 | x8 | x6 E2 | x8 | x6 F2 | %16
 x8 | x6 |] %18
V:3
 [A,,E,]2 | [A,,A,]2 [A,,E,]2 [A,,A,]3 [A,,A,] | [E,B,]2 [E,B,]2 [E,B,]2 [E,A,]2 | %3
 [E,G,]3 [E,^F,] [E,G,]2 [E,G,]2 | [A,,A,]6 ([C,A,]>[E,G,]) | A,2 [A,C]2 [A,C]3 [C,A,] | %6
 [D,A,]2 [D,A,]2 [D,A,]2 [D,A,]2 | [E,A,]2 [E,A,]2 [E,G,]3 [E,G,] | [A,,A,]6 || [A,,A,]2 | %10
 [D,A,]2 [D,A,]2 [D,A,]3 [D,A,] x | [A,,A,]6 [A,,A,]2 | A,2 A,2 [F,B,]3 [F,B,] | [E,B,]6 (A,>B,) | %14
 [A,C]2 [A,C]2 [F,A,]2 A,2 | [D,A,]2 [C,=A,]2 !fermata![B,,B,]2 ([C,E]>[D,D]) | %16
 [E,C]2 [E,_C]2 [E,B,]2 [E,B,]2 | [A,,A,]6 |] %18
V:4
 x2 | x8 | x8 | x8 | x8 | A,2 x6 | x8 | x8 | x6 || x2 | x9 | x8 | A,2 A,2 x4 | x6 A,2 | x6 A,2 | %15
 x8 | x8 | x6 |] %18

